icons/svg/sort-down_24.svg

<?xml version="1.0" encoding="UTF-8"?>
<svg width="24px" height="24px" viewBox="0 0 24 24" version="1.1" xmlns="http://www.w3.org/2000/svg" xmlns:xlink="http://www.w3.org/1999/xlink">
    <!-- Generator: Sketch 58 (84663) - https://sketch.com -->
    <title>sort-down_24</title>
    <desc>Created with Sketch.</desc>
    <g id="New-Icon" stroke="none" stroke-width="1" fill="none" fill-rule="evenodd">
        <g id="format/sort-down_24" fill="#171B1F">
            <path d="M3.5001,0 C3.74543333,0 3.94968025,0.176987654 3.99203964,0.410161866 L4.0001,0.5 L4.0001,23.5 C4.0001,23.715 3.8621,23.906 3.6581,23.974 C3.6061,23.992 3.5531,24 3.5001,24 C3.3769,24 3.25626,23.95392 3.16378,23.869952 L3.1001,23.8 L0.1001,19.8 C-0.0659,19.579 -0.0209,19.266 0.2001,19.1 C0.396544444,18.9515556 0.665680247,18.9714074 0.839650069,19.1328669 L0.9001,19.2 L3.0001,22 L3.0001,0.5 C3.0001,0.224 3.2241,0 3.5001,0 Z M23.4948,17.9971 C23.7708,17.9971 23.9948,18.2211 23.9948,18.4971 C23.9948,18.7731 23.7708,18.9971 23.4948,18.9971 L23.4948,18.9971 L6.9998,18.9971 C6.7238,18.9971 6.4998,18.7731 6.4998,18.4971 C6.4998,18.2211 6.7238,17.9971 6.9998,17.9971 L6.9998,17.9971 Z M7.0012,11.5063 L23.4962,11.5063 C23.7722,11.5063 23.9962,11.7303 23.9962,12.0063 C23.9962,12.2516333 23.8192123,12.4558802 23.5860381,12.4982396 L23.4962,12.5063 L7.0012,12.5063 C6.7252,12.5063 6.5012,12.2823 6.5012,12.0063 C6.5012,11.7609667 6.67818765,11.5567198 6.91136187,11.5143604 L7.0012,11.5063 L23.4962,11.5063 Z M23.4961,5.0063 C23.7721,5.0063 23.9961,5.2303 23.9961,5.5063 C23.9961,5.75163333 23.8191123,5.95588025 23.5859381,5.99823964 L23.4961,6.0063 L7.0011,6.0063 C6.7251,6.0063 6.5011,5.7823 6.5011,5.5063 C6.5011,5.26096667 6.67808765,5.05671975 6.91126187,5.01436036 L7.0011,5.0063 L23.4961,5.0063 Z" id="fill"></path>
        </g>
    </g>
</svg>

<svg width="24" height="24" xmlns="http://www.w3.org/2000/svg"><path d="M3.5 0a.5.5 0 01.492.41L4 .5v23a.5.5 0 01-.836.37L3.1 23.8l-3-4a.5.5 0 01.74-.667l.06.067L3 22V.5a.5.5 0 01.5-.5zm19.995 17.997a.5.5 0 010 1H7a.5.5 0 010-1zM7 11.507h16.495a.5.5 0 01.09.991l-.09.008H7.001a.5.5 0 01-.09-.992l.09-.008h16.495zm16.495-6.5a.5.5 0 01.09.991l-.09.008H7.001a.5.5 0 01-.09-.992l.09-.008h16.495z" fill="#171B1F" fill-rule="evenodd"/></svg>
